austria/municipalities/70504.svg

<?xml version="1.0" encoding="UTF-8"?>
<!DOCTYPE svg PUBLIC "-//W3C//DTD SVG 1.1//EN" "http://www.w3.org/Graphics/SVG/1.1/DTD/svg11.dtd">
<svg xmlns="http://www.w3.org/2000/svg" version="1.1" width="166px" height="192px" style="shape-rendering:geometricPrecision; text-rendering:geometricPrecision; image-rendering:optimizeQuality; fill-rule:evenodd; clip-rule:evenodd" xmlns:xlink="http://www.w3.org/1999/xlink">
<g><path style="opacity:1" fill="#040404" d="M -0.5,-0.5 C 54.8333,-0.5 110.167,-0.5 165.5,-0.5C 165.5,39.1667 165.5,78.8333 165.5,118.5C 157.367,159.633 132.7,183.966 91.5,191.5C 84.8333,191.5 78.1667,191.5 71.5,191.5C 30.4766,182.81 6.47657,157.81 -0.5,116.5C -0.5,77.5 -0.5,38.5 -0.5,-0.5 Z"/></g>
<g><path style="opacity:1" fill="#3c3b38" d="M 161.5,3.5 C 153.472,3.16897 145.472,3.5023 137.5,4.5C 138.127,5.41683 138.461,6.41683 138.5,7.5C 137.094,7.02694 136.427,6.02694 136.5,4.5C 140.276,3.1752 144.443,2.50853 149,2.5C 153.347,2.50101 157.514,2.83434 161.5,3.5 Z"/></g>
<g><path style="opacity:1" fill="#fcfcfc" d="M 3.5,3.5 C 11.5277,3.16897 19.5277,3.5023 27.5,4.5C 25.0367,8.28861 23.0367,12.2886 21.5,16.5C 19.0002,19.4937 17.0002,22.827 15.5,26.5C 13.412,28.3356 12.0787,30.6689 11.5,33.5C 9.74973,34.6594 8.74973,36.326 8.5,38.5C 6.77747,40.2528 5.27747,42.2528 4,44.5C 3.5001,30.8374 3.33343,17.1707 3.5,3.5 Z"/></g>
<g><path style="opacity:1" fill="#fcfcfc" d="M 79.5,8.5 C 76.3768,11.9758 74.0435,15.9758 72.5,20.5C 70.0002,23.4937 68.0002,26.827 66.5,30.5C 63.3768,33.9758 61.0435,37.9758 59.5,42.5C 58.2876,43.2299 57.2876,44.2299 56.5,45.5C 55.8165,45.1373 55.1499,44.8039 54.5,44.5C 52.9998,40.827 50.9998,37.4937 48.5,34.5C 46.5824,29.6566 43.9157,25.3233 40.5,21.5C 38.9998,17.827 36.9998,14.4937 34.5,11.5C 33.8277,8.65752 32.4944,6.15752 30.5,4C 47.5,3.33333 64.5,3.33333 81.5,4C 80.4178,5.32972 79.7512,6.82972 79.5,8.5 Z"/></g>
<g><path style="opacity:1" fill="#fcfcfc" d="M 134.5,5.5 C 131.084,9.32327 128.418,13.6566 126.5,18.5C 124.75,19.6594 123.75,21.326 123.5,23.5C 120.084,27.3233 117.418,31.6566 115.5,36.5C 113,39.4937 111,42.827 109.5,46.5C 106.747,41.9924 103.747,37.6591 100.5,33.5C 98.9998,29.827 96.9998,26.4937 94.5,23.5C 92.9565,18.9758 90.6232,14.9758 87.5,11.5C 87.2503,9.32604 86.2503,7.65938 84.5,6.5C 84.5858,5.5041 84.2524,4.67076 83.5,4C 92,3.83333 100.5,3.66667 109,3.5C 117.861,3.50193 126.361,4.1686 134.5,5.5 Z"/></g>
<g><path style="opacity:1" fill="#fcfcfc" d="M 161.5,3.5 C 161.667,17.1707 161.5,30.8374 161,44.5C 160.623,43.0577 159.79,42.0577 158.5,41.5C 158.25,39.326 157.25,37.6594 155.5,36.5C 154.921,33.6689 153.588,31.3356 151.5,29.5C 150,25.827 148,22.4937 145.5,19.5C 143.957,14.9758 141.623,10.9758 138.5,7.5C 138.461,6.41683 138.127,5.41683 137.5,4.5C 145.472,3.5023 153.472,3.16897 161.5,3.5 Z"/></g>
<g><path style="opacity:1" fill="#18582a" d="M 28.5,4.5 C 30.5,6.83333 32.5,9.16667 34.5,11.5C 36.9998,14.4937 38.9998,17.827 40.5,21.5C 42.4176,26.3434 45.0843,30.6767 48.5,34.5C 50.9998,37.4937 52.9998,40.827 54.5,44.5C 54.4142,45.4959 54.7476,46.3292 55.5,47C 38.4902,47.8329 21.4902,47.6663 4.5,46.5C 6.37164,44.0901 7.70497,41.4234 8.5,38.5C 8.74973,36.326 9.74973,34.6594 11.5,33.5C 13.588,31.6644 14.9213,29.3311 15.5,26.5C 17.0002,22.827 19.0002,19.4937 21.5,16.5C 24.6232,13.0242 26.9565,9.02421 28.5,4.5 Z"/></g>
<g><path style="opacity:1" fill="#18592a" d="M 84.5,6.5 C 86.2503,7.65938 87.2503,9.32604 87.5,11.5C 89.0435,16.0242 91.3768,20.0242 94.5,23.5C 96.9998,26.4937 98.9998,29.827 100.5,33.5C 102.374,38.0512 104.707,42.3846 107.5,46.5C 90.8433,47.6663 74.1767,47.8329 57.5,47C 58.5822,45.6703 59.2488,44.1703 59.5,42.5C 62.6232,39.0242 64.9565,35.0242 66.5,30.5C 68.0002,26.827 70.0002,23.4937 72.5,20.5C 75.6232,17.0242 77.9565,13.0242 79.5,8.5C 80.7124,7.77013 81.7124,6.77013 82.5,5.5C 83.1835,5.86273 83.8501,6.19607 84.5,6.5 Z"/></g>
<g><path style="opacity:1" fill="#18592a" d="M 136.5,4.5 C 136.427,6.02694 137.094,7.02694 138.5,7.5C 140.043,12.0242 142.377,16.0242 145.5,19.5C 148,22.4937 150,25.827 151.5,29.5C 152.079,32.3311 153.412,34.6644 155.5,36.5C 157.25,37.6594 158.25,39.326 158.5,41.5C 158.84,43.679 159.84,45.5123 161.5,47C 143.995,47.8285 126.662,47.6618 109.5,46.5C 111,42.827 113,39.4937 115.5,36.5C 118.916,32.6767 121.582,28.3434 123.5,23.5C 123.75,21.326 124.75,19.6594 126.5,18.5C 129.916,14.6767 132.582,10.3434 134.5,5.5C 135.167,5.16667 135.833,4.83333 136.5,4.5 Z"/></g>
<g><path style="opacity:1" fill="#191f19" d="M 134.5,5.5 C 132.582,10.3434 129.916,14.6767 126.5,18.5C 128.418,13.6566 131.084,9.32327 134.5,5.5 Z"/></g>
<g><path style="opacity:1" fill="#2a2c28" d="M 3.5,3.5 C 7.48608,2.83434 11.6528,2.50101 16,2.5C 20.5572,2.50853 24.7238,3.1752 28.5,4.5C 26.9565,9.02421 24.6232,13.0242 21.5,16.5C 23.0367,12.2886 25.0367,8.28861 27.5,4.5C 19.5277,3.5023 11.5277,3.16897 3.5,3.5 Z"/></g>
<g><path style="opacity:1" fill="#191e19" d="M 79.5,8.5 C 77.9565,13.0242 75.6232,17.0242 72.5,20.5C 74.0435,15.9758 76.3768,11.9758 79.5,8.5 Z"/></g>
<g><path style="opacity:1" fill="#1c221c" d="M 138.5,7.5 C 141.623,10.9758 143.957,14.9758 145.5,19.5C 142.377,16.0242 140.043,12.0242 138.5,7.5 Z"/></g>
<g><path style="opacity:1" fill="#181d18" d="M 87.5,11.5 C 90.6232,14.9758 92.9565,18.9758 94.5,23.5C 91.3768,20.0242 89.0435,16.0242 87.5,11.5 Z"/></g>
<g><path style="opacity:1" fill="#191f19" d="M 40.5,21.5 C 43.9157,25.3233 46.5824,29.6566 48.5,34.5C 45.0843,30.6767 42.4176,26.3434 40.5,21.5 Z"/></g>
<g><path style="opacity:1" fill="#181c17" d="M 15.5,26.5 C 14.9213,29.3311 13.588,31.6644 11.5,33.5C 12.0787,30.6689 13.412,28.3356 15.5,26.5 Z"/></g>
<g><path style="opacity:1" fill="#191e19" d="M 123.5,23.5 C 121.582,28.3434 118.916,32.6767 115.5,36.5C 117.418,31.6566 120.084,27.3233 123.5,23.5 Z"/></g>
<g><path style="opacity:1" fill="#171c17" d="M 151.5,29.5 C 153.588,31.3356 154.921,33.6689 155.5,36.5C 153.412,34.6644 152.079,32.3311 151.5,29.5 Z"/></g>
<g><path style="opacity:1" fill="#181e18" d="M 66.5,30.5 C 64.9565,35.0242 62.6232,39.0242 59.5,42.5C 61.0435,37.9758 63.3768,33.9758 66.5,30.5 Z"/></g>
<g><path style="opacity:1" fill="#0e1b10" d="M 160.5,52.5 C 160.56,51.9569 160.893,51.6236 161.5,51.5C 162.828,71.6627 162.828,91.6627 161.5,111.5C 161.83,91.6596 161.497,71.9929 160.5,52.5 Z"/></g>
<g><path style="opacity:1" fill="#185b2a" d="M 21.5,81.5 C 22.0787,84.3311 23.412,86.6644 25.5,88.5C 32.1079,101.095 39.1079,113.428 46.5,125.5C 47.4097,128.992 49.0764,131.992 51.5,134.5C 58.1079,147.095 65.1079,159.428 72.5,171.5C 73.0787,174.331 74.412,176.664 76.5,178.5C 77.0787,181.331 78.412,183.664 80.5,185.5C 79.4855,186.765 77.9855,187.431 76,187.5C 35.3293,181.828 11.3293,158.828 4,118.5C 3.33333,96.1667 3.33333,73.8333 4,51.5C 9.60759,61.727 15.4409,71.727 21.5,81.5 Z"/></g>
<g><path style="opacity:1" fill="#185b2a" d="M 160.5,52.5 C 161.497,71.9929 161.83,91.6596 161.5,111.5C 156.874,155.961 132.374,181.294 88,187.5C 86.8333,187.333 85.6667,187.167 84.5,187C 85.5822,185.67 86.2488,184.17 86.5,182.5C 88.588,180.664 89.9213,178.331 90.5,175.5C 92.588,173.664 93.9213,171.331 94.5,168.5C 101.003,158.165 107.003,147.498 112.5,136.5C 114.588,134.664 115.921,132.331 116.5,129.5C 123.892,117.428 130.892,105.095 137.5,92.5C 139.588,90.6644 140.921,88.3311 141.5,85.5C 143.588,83.6644 144.921,81.3311 145.5,78.5C 150.99,70.1955 155.99,61.5288 160.5,52.5 Z"/></g>
<g><path style="opacity:1" fill="#3e3c3a" d="M 20.5,77.5 C 41.164,76.8334 61.9973,76.5 83,76.5C 104.178,76.5003 125.011,77.167 145.5,78.5C 144.921,81.3311 143.588,83.6644 141.5,85.5C 142.212,83.0721 143.212,80.7388 144.5,78.5C 103.172,77.5001 61.8387,77.1668 20.5,77.5 Z"/></g>
<g><path style="opacity:1" fill="#fefefe" d="M 20.5,77.5 C 61.8387,77.1668 103.172,77.5001 144.5,78.5C 143.212,80.7388 142.212,83.0721 141.5,85.5C 139.412,87.3356 138.079,89.6689 137.5,92.5C 136.711,92.7828 136.044,93.2828 135.5,94C 100.167,94.6667 64.8333,94.6667 29.5,94C 28.5119,91.833 27.1786,89.9997 25.5,88.5C 24.9213,85.6689 23.588,83.3356 21.5,81.5C 21.1667,80.1667 20.8333,78.8333 20.5,77.5 Z"/></g>
<g><path style="opacity:1" fill="#191d18" d="M 21.5,81.5 C 23.588,83.3356 24.9213,85.6689 25.5,88.5C 23.412,86.6644 22.0787,84.3311 21.5,81.5 Z"/></g>
<g><path style="opacity:1" fill="#141a14" d="M 141.5,85.5 C 140.921,88.3311 139.588,90.6644 137.5,92.5C 138.079,89.6689 139.412,87.3356 141.5,85.5 Z"/></g>
<g><path style="opacity:1" fill="#010101" d="M 25.5,88.5 C 27.1786,89.9997 28.5119,91.833 29.5,94C 64.8333,94.6667 100.167,94.6667 135.5,94C 136.044,93.2828 136.711,92.7828 137.5,92.5C 130.892,105.095 123.892,117.428 116.5,129.5C 117.086,127.16 118.086,124.993 119.5,123C 94.8333,122.333 70.1667,122.333 45.5,123C 46.2524,123.671 46.5858,124.504 46.5,125.5C 39.1079,113.428 32.1079,101.095 25.5,88.5 Z"/></g>
<g><path style="opacity:1" fill="#fdfdfd" d="M -0.5,116.5 C 6.47657,157.81 30.4766,182.81 71.5,191.5C 47.5,191.5 23.5,191.5 -0.5,191.5C -0.5,166.5 -0.5,141.5 -0.5,116.5 Z"/></g>
<g><path style="opacity:1" fill="#fdfcfc" d="M 165.5,118.5 C 165.5,142.833 165.5,167.167 165.5,191.5C 140.833,191.5 116.167,191.5 91.5,191.5C 132.7,183.966 157.367,159.633 165.5,118.5 Z"/></g>
<g><path style="opacity:1" fill="#f8f8f8" d="M 116.5,129.5 C 114.412,131.336 113.079,133.669 112.5,136.5C 111.522,136.811 110.855,137.478 110.5,138.5C 91.8333,139.833 73.1667,139.833 54.5,138.5C 53.9649,136.739 52.9649,135.406 51.5,134.5C 50.5903,131.008 48.9236,128.008 46.5,125.5C 46.5858,124.504 46.2524,123.671 45.5,123C 70.1667,122.333 94.8333,122.333 119.5,123C 118.086,124.993 117.086,127.16 116.5,129.5 Z"/></g>
<g><path style="opacity:1" fill="#181d17" d="M 46.5,125.5 C 48.9236,128.008 50.5903,131.008 51.5,134.5C 49.0764,131.992 47.4097,128.992 46.5,125.5 Z"/></g>
<g><path style="opacity:1" fill="#181d18" d="M 116.5,129.5 C 115.921,132.331 114.588,134.664 112.5,136.5C 113.079,133.669 114.412,131.336 116.5,129.5 Z"/></g>
<g><path style="opacity:1" fill="#000000" d="M 51.5,134.5 C 52.9649,135.406 53.9649,136.739 54.5,138.5C 73.1667,139.833 91.8333,139.833 110.5,138.5C 110.855,137.478 111.522,136.811 112.5,136.5C 107.003,147.498 101.003,158.165 94.5,168.5C 90.893,167.176 86.893,166.509 82.5,166.5C 78.0755,166.464 74.4088,166.798 71.5,167.5C 71.8333,168.833 72.1667,170.167 72.5,171.5C 65.1079,159.428 58.1079,147.095 51.5,134.5 Z"/></g>
<g><path style="opacity:1" fill="#918d8a" d="M 94.5,168.5 C 94.1667,168.5 93.8333,168.5 93.5,168.5C 86.3524,167.508 79.0191,167.175 71.5,167.5C 74.4088,166.798 78.0755,166.464 82.5,166.5C 86.893,166.509 90.893,167.176 94.5,168.5 Z"/></g>
<g><path style="opacity:1" fill="#faf9f9" d="M 71.5,167.5 C 79.0191,167.175 86.3524,167.508 93.5,168.5C 92.2271,170.713 91.2271,173.046 90.5,175.5C 88.412,177.336 87.0787,179.669 86.5,182.5C 84.9458,183.914 83.6125,185.581 82.5,187.5C 81.8182,186.757 81.1515,186.091 80.5,185.5C 79.9213,182.669 78.588,180.336 76.5,178.5C 75.9213,175.669 74.588,173.336 72.5,171.5C 72.1667,170.167 71.8333,168.833 71.5,167.5 Z"/></g>
<g><path style="opacity:1" fill="#141a14" d="M 93.5,168.5 C 93.8333,168.5 94.1667,168.5 94.5,168.5C 93.9213,171.331 92.588,173.664 90.5,175.5C 91.2271,173.046 92.2271,170.713 93.5,168.5 Z"/></g>
<g><path style="opacity:1" fill="#191d19" d="M 72.5,171.5 C 74.588,173.336 75.9213,175.669 76.5,178.5C 74.412,176.664 73.0787,174.331 72.5,171.5 Z"/></g>
<g><path style="opacity:1" fill="#151c16" d="M 90.5,175.5 C 89.9213,178.331 88.588,180.664 86.5,182.5C 87.0787,179.669 88.412,177.336 90.5,175.5 Z"/></g>
<g><path style="opacity:1" fill="#191e19" d="M 76.5,178.5 C 78.588,180.336 79.9213,182.669 80.5,185.5C 78.412,183.664 77.0787,181.331 76.5,178.5 Z"/></g>
</svg>

<svg xmlns="http://www.w3.org/2000/svg" width="166" height="192" style="shape-rendering:geometricPrecision;text-rendering:geometricPrecision;image-rendering:optimizeQuality;fill-rule:evenodd;clip-rule:evenodd"><path style="opacity:1" fill="#040404" d="M-.5-.5h166v119c-8.133 41.133-32.8 65.466-74 73h-20c-41.023-8.69-65.023-33.69-72-75V-.5z"/><path style="opacity:1" fill="#3c3b38" d="M161.5 3.5a144.87 144.87 0 0 0-24 1 5.575 5.575 0 0 1 1 3c-1.406-.473-2.073-1.473-2-3 3.776-1.325 7.943-1.991 12.5-2 4.347.001 8.514.334 12.5 1z"/><path style="opacity:1" fill="#fcfcfc" d="M3.5 3.5c8.028-.331 16.028.002 24 1a59.138 59.138 0 0 0-6 12 37.795 37.795 0 0 0-6 10c-2.088 1.836-3.421 4.169-4 7-1.75 1.16-2.75 2.826-3 5-1.723 1.753-3.223 3.753-4.5 6-.5-13.663-.667-27.33-.5-41zM79.5 8.5c-3.123 3.476-5.457 7.476-7 12a37.795 37.795 0 0 0-6 10c-3.123 3.476-5.456 7.476-7 12-1.212.73-2.212 1.73-3 3a44.358 44.358 0 0 0-2-1 37.795 37.795 0 0 0-6-10c-1.918-4.843-4.584-9.177-8-13a37.795 37.795 0 0 0-6-10 16.454 16.454 0 0 0-4-7.5c17-.667 34-.667 51 0a9.173 9.173 0 0 0-2 4.5zM134.5 5.5c-3.416 3.823-6.082 8.157-8 13-1.75 1.16-2.75 2.826-3 5-3.416 3.823-6.082 8.157-8 13a37.785 37.785 0 0 0-6 10 137.96 137.96 0 0 0-9-13 37.795 37.795 0 0 0-6-10c-1.543-4.524-3.877-8.524-7-12-.25-2.174-1.25-3.84-3-5 .086-.996-.248-1.83-1-2.5l25.5-.5c8.861.002 17.361.669 25.5 2zM161.5 3.5c.167 13.67 0 27.337-.5 41-.377-1.442-1.21-2.442-2.5-3-.25-2.174-1.25-3.84-3-5-.579-2.831-1.912-5.164-4-7a37.785 37.785 0 0 0-6-10c-1.543-4.524-3.877-8.524-7-12a5.575 5.575 0 0 0-1-3 144.87 144.87 0 0 1 24-1z"/><path style="opacity:1" fill="#18582a" d="m28.5 4.5 6 7c2.5 2.994 4.5 6.327 6 10 1.918 4.843 4.584 9.177 8 13 2.5 2.994 4.5 6.327 6 10-.086.996.248 1.83 1 2.5a434.07 434.07 0 0 1-51-.5 22.584 22.584 0 0 0 4-8c.25-2.174 1.25-3.84 3-5 2.088-1.836 3.421-4.169 4-7 1.5-3.673 3.5-7.006 6-10 3.123-3.476 5.456-7.476 7-12z"/><path style="opacity:1" fill="#18592a" d="M84.5 6.5c1.75 1.16 2.75 2.826 3 5 1.543 4.524 3.877 8.524 7 12 2.5 2.994 4.5 6.327 6 10a71.729 71.729 0 0 0 7 13 417.23 417.23 0 0 1-50 .5 9.173 9.173 0 0 0 2-4.5c3.123-3.476 5.457-7.476 7-12 1.5-3.673 3.5-7.006 6-10 3.123-3.476 5.457-7.476 7-12 1.212-.73 2.212-1.73 3-3 .683.363 1.35.696 2 1zM136.5 4.5c-.073 1.527.594 2.527 2 3 1.543 4.524 3.877 8.524 7 12 2.5 2.994 4.5 6.327 6 10 .579 2.831 1.912 5.164 4 7 1.75 1.16 2.75 2.826 3 5 .34 2.179 1.34 4.012 3 5.5-17.505.828-34.838.662-52-.5 1.5-3.673 3.5-7.006 6-10 3.416-3.823 6.082-8.157 8-13 .25-2.174 1.25-3.84 3-5 3.416-3.823 6.082-8.157 8-13l2-1z"/><path style="opacity:1" fill="#191f19" d="M134.5 5.5c-1.918 4.843-4.584 9.177-8 13 1.918-4.843 4.584-9.177 8-13z"/><path style="opacity:1" fill="#2a2c28" d="M3.5 3.5c3.986-.666 8.153-.999 12.5-1 4.557.009 8.724.675 12.5 2-1.544 4.524-3.877 8.524-7 12a59.138 59.138 0 0 1 6-12 144.873 144.873 0 0 0-24-1z"/><path style="opacity:1" fill="#191e19" d="M79.5 8.5c-1.543 4.524-3.877 8.524-7 12 1.543-4.524 3.877-8.524 7-12z"/><path style="opacity:1" fill="#1c221c" d="M138.5 7.5c3.123 3.476 5.457 7.476 7 12-3.123-3.476-5.457-7.476-7-12z"/><path style="opacity:1" fill="#181d18" d="M87.5 11.5c3.123 3.476 5.457 7.476 7 12-3.123-3.476-5.457-7.476-7-12z"/><path style="opacity:1" fill="#191f19" d="M40.5 21.5c3.416 3.823 6.082 8.157 8 13-3.416-3.823-6.082-8.157-8-13z"/><path style="opacity:1" fill="#181c17" d="M15.5 26.5c-.579 2.831-1.912 5.164-4 7 .579-2.831 1.912-5.164 4-7z"/><path style="opacity:1" fill="#191e19" d="M123.5 23.5c-1.918 4.843-4.584 9.177-8 13 1.918-4.843 4.584-9.177 8-13z"/><path style="opacity:1" fill="#171c17" d="M151.5 29.5c2.088 1.836 3.421 4.169 4 7-2.088-1.836-3.421-4.169-4-7z"/><path style="opacity:1" fill="#181e18" d="M66.5 30.5c-1.543 4.524-3.877 8.524-7 12 1.544-4.524 3.877-8.524 7-12z"/><path style="opacity:1" fill="#0e1b10" d="M160.5 52.5c.06-.543.393-.876 1-1 1.328 20.163 1.328 40.163 0 60a871.15 871.15 0 0 0-1-59z"/><path style="opacity:1" fill="#185b2a" d="M21.5 81.5c.579 2.831 1.912 5.164 4 7a641.908 641.908 0 0 0 21 37c.91 3.492 2.576 6.492 5 9a641.908 641.908 0 0 0 21 37c.579 2.831 1.912 5.164 4 7 .579 2.831 1.912 5.164 4 7-1.014 1.265-2.514 1.931-4.5 2-40.67-5.672-64.67-28.672-72-69a1122.494 1122.494 0 0 1 0-67 649.927 649.927 0 0 0 17.5 30zM160.5 52.5a871.15 871.15 0 0 1 1 59c-4.626 44.461-29.126 69.794-73.5 76l-3.5-.5a9.175 9.175 0 0 0 2-4.5c2.088-1.836 3.421-4.169 4-7 2.088-1.836 3.421-4.169 4-7a374.093 374.093 0 0 0 18-32c2.088-1.836 3.421-4.169 4-7a642.027 642.027 0 0 0 21-37c2.088-1.836 3.421-4.169 4-7 2.088-1.836 3.421-4.169 4-7a248.267 248.267 0 0 0 15-26z"/><path style="opacity:1" fill="#3e3c3a" d="M20.5 77.5c20.664-.667 41.497-1 62.5-1 21.178 0 42.011.667 62.5 2-.579 2.831-1.912 5.164-4 7a32.126 32.126 0 0 1 3-7c-41.328-1-82.661-1.333-124-1z"/><path style="opacity:1" fill="#fefefe" d="M20.5 77.5c41.339-.333 82.672 0 124 1a32.126 32.126 0 0 0-3 7c-2.088 1.836-3.421 4.169-4 7-.789.283-1.456.783-2 1.5a2809.11 2809.11 0 0 1-106 0c-.988-2.167-2.321-4-4-5.5-.579-2.831-1.912-5.164-4-7l-1-4z"/><path style="opacity:1" fill="#191d18" d="M21.5 81.5c2.088 1.836 3.421 4.169 4 7-2.088-1.836-3.421-4.169-4-7z"/><path style="opacity:1" fill="#141a14" d="M141.5 85.5c-.579 2.831-1.912 5.164-4 7 .579-2.831 1.912-5.164 4-7z"/><path style="opacity:1" fill="#010101" d="M25.5 88.5c1.679 1.5 3.012 3.333 4 5.5 35.333.667 70.667.667 106 0 .544-.717 1.211-1.217 2-1.5a642.027 642.027 0 0 1-21 37 19.209 19.209 0 0 1 3-6.5 1368.566 1368.566 0 0 0-74 0c.752.671 1.086 1.504 1 2.5a641.908 641.908 0 0 1-21-37z"/><path style="opacity:1" fill="#fdfdfd" d="M-.5 116.5c6.977 41.31 30.977 66.31 72 75h-72v-75z"/><path style="opacity:1" fill="#fdfcfc" d="M165.5 118.5v73h-74c41.2-7.534 65.867-31.867 74-73z"/><path style="opacity:1" fill="#f8f8f8" d="M116.5 129.5c-2.088 1.836-3.421 4.169-4 7-.978.311-1.645.978-2 2a392.598 392.598 0 0 1-56 0c-.535-1.761-1.535-3.094-3-4-.91-3.492-2.576-6.492-5-9 .086-.996-.248-1.829-1-2.5 24.667-.667 49.333-.667 74 0a19.209 19.209 0 0 0-3 6.5z"/><path style="opacity:1" fill="#181d17" d="M46.5 125.5c2.424 2.508 4.09 5.508 5 9-2.424-2.508-4.09-5.508-5-9z"/><path style="opacity:1" fill="#181d18" d="M116.5 129.5c-.579 2.831-1.912 5.164-4 7 .579-2.831 1.912-5.164 4-7z"/><path style="opacity:1" d="M51.5 134.5c1.465.906 2.465 2.239 3 4a392.598 392.598 0 0 0 56 0c.355-1.022 1.022-1.689 2-2a374.093 374.093 0 0 1-18 32c-3.607-1.324-7.607-1.991-12-2-4.424-.036-8.091.298-11 1l1 4a641.908 641.908 0 0 1-21-37z"/><path style="opacity:1" fill="#918d8a" d="M94.5 168.5h-1c-7.148-.992-14.48-1.325-22-1 2.909-.702 6.576-1.036 11-1 4.393.009 8.393.676 12 2z"/><path style="opacity:1" fill="#faf9f9" d="M71.5 167.5c7.52-.325 14.852.008 22 1a32.517 32.517 0 0 0-3 7c-2.088 1.836-3.421 4.169-4 7-1.554 1.414-2.888 3.081-4 5a30.968 30.968 0 0 0-2-2c-.579-2.831-1.912-5.164-4-7-.579-2.831-1.912-5.164-4-7l-1-4z"/><path style="opacity:1" fill="#141a14" d="M93.5 168.5h1c-.579 2.831-1.912 5.164-4 7a32.517 32.517 0 0 1 3-7z"/><path style="opacity:1" fill="#191d19" d="M72.5 171.5c2.088 1.836 3.421 4.169 4 7-2.088-1.836-3.421-4.169-4-7z"/><path style="opacity:1" fill="#151c16" d="M90.5 175.5c-.579 2.831-1.912 5.164-4 7 .579-2.831 1.912-5.164 4-7z"/><path style="opacity:1" fill="#191e19" d="M76.5 178.5c2.088 1.836 3.421 4.169 4 7-2.088-1.836-3.421-4.169-4-7z"/></svg>
